src/assets/icons/letters,simple,serif-r.svg

<svg width="48" height="48" viewBox="0 0 48 48" fill="none" xmlns="http://www.w3.org/2000/svg">
<rect opacity="0.2" x="5" y="5" width="38" height="38" rx="4" fill="black"/>
<path d="M32.6186 18.69C32.6186 20.35 32.1386 21.74 31.1786 22.86C30.2186 23.98 28.6886 24.73 26.5886 25.11L33.5486 33.09C34.0286 33.65 34.5986 34.08 35.2586 34.38C35.9186 34.66 36.5886 34.8 37.2686 34.8V36H30.1586L22.7186 26.88C22.2186 26.28 21.7786 25.88 21.3986 25.68C21.0386 25.46 20.6986 25.35 20.3786 25.35V31.23C20.3786 31.97 20.4286 32.58 20.5286 33.06C20.6286 33.52 20.8286 33.88 21.1286 34.14C21.4286 34.4 21.8586 34.58 22.4186 34.68C22.9986 34.76 23.7686 34.8 24.7286 34.8V36H12.8186V34.8C13.4786 34.8 14.0086 34.76 14.4086 34.68C14.8286 34.58 15.1486 34.41 15.3686 34.17C15.6086 33.91 15.7686 33.56 15.8486 33.12C15.9286 32.66 15.9686 32.08 15.9686 31.38V17.52C15.9686 16.82 15.9386 16.26 15.8786 15.84C15.8186 15.4 15.6886 15.06 15.4886 14.82C15.2886 14.56 14.9986 14.39 14.6186 14.31C14.2586 14.21 13.7686 14.14 13.1486 14.1V12.9H23.5286C26.4286 12.9 28.6686 13.41 30.2486 14.43C31.8286 15.45 32.6186 16.87 32.6186 18.69ZM20.3786 23.55H22.3286C24.2086 23.55 25.6086 23.19 26.5286 22.47C27.4686 21.73 27.9386 20.52 27.9386 18.84C27.9386 17.56 27.5486 16.53 26.7686 15.75C25.9886 14.97 24.9086 14.58 23.5286 14.58H20.9186C20.5586 14.58 20.3786 14.75 20.3786 15.09V23.55Z" fill="black"/>
</svg>

<svg xmlns="http://www.w3.org/2000/svg" width="48" height="48" fill="none" viewBox="0 0 48 48">
  <rect width="38" height="38" x="5" y="5" fill="#000" opacity=".2" rx="4"/>
  <path fill="#000" d="M32.619 18.69c0 1.66-.48 3.05-1.44 4.17s-2.49 1.87-4.59 2.25l6.96 7.98a4.9 4.9 0 001.71 1.29c.66.28 1.33.42 2.01.42V36h-7.11l-7.44-9.12c-.5-.6-.94-1-1.32-1.2-.36-.22-.7-.33-1.02-.33v5.88c0 .74.05 1.35.15 1.83.1.46.3.82.6 1.08.3.26.73.44 1.29.54.58.08 1.35.12 2.31.12V36h-11.91v-1.2c.66 0 1.19-.04 1.59-.12.42-.1.74-.27.96-.51.24-.26.4-.61.48-1.05.08-.46.12-1.04.12-1.74V17.52c0-.7-.03-1.26-.09-1.68-.06-.44-.19-.78-.39-1.02-.2-.26-.49-.43-.87-.51-.36-.1-.85-.17-1.47-.21v-1.2h10.38c2.9 0 5.14.51 6.72 1.53s2.37 2.44 2.37 4.26zm-12.24 4.86h1.95c1.88 0 3.28-.36 4.2-1.08.94-.74 1.41-1.95 1.41-3.63 0-1.28-.39-2.31-1.17-3.09-.78-.78-1.86-1.17-3.24-1.17h-2.61c-.36 0-.54.17-.54.51v8.46z"/>
</svg>
